X:1
L:1/4
Q:1/4=72
M:3/8
V:1
V:2 clef=bass 
K:C
[V:1] (3z/4 [gc']/4[ba]/4 (3z/4 [gf]/4[ed]/4 (3z/4 [gf]/4[de]/4 | (3z/4 [fe]/4[_e=e]/4 (3z/4 [Be]/4[_e=e]/4 (3z/4 [Be]/4_e/4 | =e/>B/e/4_e/4 | =e/>B/e/4_e/4 |
[V:2] [CE]/[F,A,]/[G,B,]/ | [^G,B,]/ z | z3/2 | z3/2 |
